logos/css-3_official.svg

<?xml version="1.0" encoding="UTF-8" standalone="no"?>
<svg width="256px" height="232px" viewBox="0 0 256 232" version="1.1" xmlns="http://www.w3.org/2000/svg" xmlns:xlink="http://www.w3.org/1999/xlink" preserveAspectRatio="xMidYMid">
    <g>
        <path d="M100.90241,231.617947 L217.358491,192.964882 L256,0 L37.8672926,0 L29.5704613,43.055701 L204.381692,43.055701 L198.939063,70.5461768 L23.8620565,70.5461768 L15.2994493,113.601878 L190.122235,113.601878 L180.519635,162.88598 L109.973459,185.962264 L49.0183263,162.88598 L53.1782974,141.358129 L10.1225964,141.358129 L0,192.964882 L100.90241,231.617947" fill="#444"></path>
    </g>
</svg>

<svg width="256" height="232" xmlns="http://www.w3.org/2000/svg" preserveAspectRatio="xMidYMid">
	<path d="m100.902 231.618 116.456-38.653L256 0H37.867L29.57 43.056h174.812l-5.443 27.49H23.862L15.3 113.602h174.823l-9.602 49.284-70.547 23.076-60.955-23.076 4.16-21.528H10.123L0 192.965l100.902 38.653" fill="#444"/>
</svg>
